Sources/FrostedUI/Resources/Icons.xcassets/rotate16.imageset/rotate-16.svg

<svg width="16" height="16" viewBox="0 0 16 16" fill="none" xmlns="http://www.w3.org/2000/svg" data-fui-icon="true">
  <path
    d="M3.125 8.43066C2.35739 8.43106 1.75008 9.05864 1.75 9.81348V13.3418C1.75022 13.7557 2.08616 14.0915 2.5 14.0918C2.91408 14.0918 3.24978 13.7558 3.25 13.3418V11.8721C4.15545 13.1616 5.6895 14.2547 8.02246 14.2549C10.5587 14.2549 12.497 12.9399 13.4785 11.0332C13.668 10.6649 13.5226 10.213 13.1543 10.0234C12.786 9.83408 12.334 9.97847 12.1445 10.3467C11.4173 11.7592 9.99078 12.7549 8.02246 12.7549C5.64139 12.7546 4.38731 11.2624 3.91602 9.93066H6.62109C7.03508 9.93056 7.37088 9.59463 7.37109 9.18066C7.371 8.7666 7.03516 8.43077 6.62109 8.43066H3.125ZM7.98535 1.75C5.44912 1.75013 3.51073 3.06482 2.5293 4.97168C2.34006 5.33984 2.48549 5.79189 2.85352 5.98145C3.22166 6.17077 3.67367 6.02619 3.86328 5.6582C4.59037 4.24551 6.01702 3.25012 7.98535 3.25C10.3667 3.25018 11.6206 4.74234 12.0918 6.07422H9.38672C8.97276 6.07452 8.63672 6.41019 8.63672 6.82422C8.63693 7.23807 8.97289 7.57392 9.38672 7.57422H12.8828C13.6505 7.57396 14.2576 6.94623 14.2578 6.19141V2.66309C14.2578 2.24896 13.9219 1.91323 13.5078 1.91309C13.0938 1.91328 12.7578 2.24899 12.7578 2.66309V4.13281C11.8523 2.8432 10.3185 1.75013 7.98535 1.75Z"
    fill="currentColor"
  />
</svg>

<svg xmlns="http://www.w3.org/2000/svg" width="16" height="16" fill="none" data-fui-icon="true" viewBox="0 0 16 16"><path fill="currentColor" d="M3.125 8.43A1.38 1.38 0 0 0 1.75 9.814v3.529a.75.75 0 0 0 1.5 0v-1.47c.905 1.29 2.44 2.383 4.772 2.383 2.537 0 4.475-1.315 5.457-3.222a.75.75 0 0 0-1.334-.686c-.728 1.412-2.154 2.408-4.123 2.408-2.38 0-3.635-1.493-4.106-2.824h2.705a.75.75 0 0 0 0-1.5zm4.86-6.68c-2.536 0-4.474 1.315-5.456 3.222a.75.75 0 0 0 1.334.686C4.59 4.246 6.017 3.25 7.985 3.25c2.382 0 3.636 1.492 4.107 2.824H9.387a.75.75 0 0 0 0 1.5h3.496a1.38 1.38 0 0 0 1.375-1.383V2.663a.75.75 0 0 0-1.5 0v1.47c-.906-1.29-2.44-2.383-4.773-2.383"/></svg>
